X:198
T:Polska efter Carl Sved
T:(SvL Hälsingland 198)
R:Polska
O:Delsbo, Hälsingland
S:Carl Sved
B:Svenska Låtar Hälsingland
M:3/4
L:1/8
K:G
vGD DG GB|BG (A/G/)F/G/ A2|AF DF Ac|d/c/B/A/ (B/c/)d/B/ G2|
GD DG GB|BG (A/G/)F/G/ A2|AF DF Ac|d/c/B/A/ B2 G2:|
|:GB dB G2|GF/G/ (A/G/)F/E/ D2|GG/B/ dd/B/ G2|
GF/G/ (A/G/)F/E/ D2|dd/e/ cc/d/ BB/c/|(B/A/)G/F/ A2G2:|
|:Bd dc cB|BA (B/A/)G/F/ G2|Bd dc cB|BA (B/A/)G/F/ G2|
ce ec d/c/B/c/|Bd dB Bd|cB AG FA|B/A/G/F/ A2 G2:|

